X:246
T:Perth Hunt,The TS.246
M:C
L:1/8
Q:1/2=90
S:Thomas Sands’ MS,1810,Lincolnshire
R:reel
O:England;Lincolnshire
Z:vmp.Ruairidh Greig, 2011
K:A
F|E2CE A,ECE|A,ECE FB,B,F|E2CE A,ECd|ceBd cAA:|
d|(c/B/A) eA fAeA|(c/B/A) eA fBBd|(c/B/A)eA fAeA|EFAB cAAd|
(c/B/A) eA fAeA|(c/B/A) eA fBBd|ceAc dfBd|EFAB cAA|]

